**harmony	**harte	**kern	**silbe	**rhyme	**timestamp	**phrase
*M4/4	*M4/4	*ICvox	*	*	*	*
*	*	*VRlead	*	*	*	*
*	*	*Hstimme	*	*	*	*
*B:	*B:	*B:	*	*	*B:	*B:
*	*	*M4/4	*	*	*	*
*	*	*clefG2	*	*	*	*
1r;	1r	r;	.	.	0	.
=1	=1	=1	=1	=1	=1	=1
*>Letter>A	*>Letter>A	*>Letter>A	*>Letter>A	*>Letter>A	*>Letter>A	*>Letter>A
*>Label>Intro	*>Label>Intro	*>Label>Intro	*>Label>Intro	*>Label>Intro	*>Label>Intro	*>Label>Intro
1BM	B:maj	1r	.	.	0.37	newline
=2	=2	=2	=2	=2	=2	=2
1BM	B:maj	1r	.	.	2.71	.
=3	=3	=3	=3	=3	=3	=3
2EM	E:maj/5	1r	.	.	5.049	newline
2BM	B:maj	.	.	.	6.183	.
=4	=4	=4	=4	=4	=4	=4
2EM	E:maj/5	1r	.	.	7.316	.
2BM	B:maj	.	.	.	8.45	.
=5	=5	=5	=5	=5	=5	=5
1F#M	F#:maj	1r	.	.	9.584	.
=6	=6	=6	=6	=6	=6	=6
1F#M	F#:maj	1r	.	.	11.851	.
=7	=7	=7	=7	=7	=7	=7
2EM	E:maj/5	1r	.	.	14.118	newline
2BM	B:maj	.	.	.	15.232	.
=8	=8	=8	=8	=8	=8	=8
2EM	E:maj/5	1r	.	.	16.346	.
2BM	B:maj	.	.	.	17.46	.
=9	=9	=9	=9	=9	=9	=9
1F#M	F#:maj	1r	.	.	18.575	.
=10	=10	=10	=10	=10	=10	=10
1F#M	F#:maj	1r	.	.	20.803	.
=11	=11	=11	=11	=11	=11	=11
*>Letter>A	*>Letter>A	*>Letter>A	*>Letter>A	*>Letter>A	*>Letter>A	*>Letter>A
*>Label>Verse	*>Label>Verse	*>Label>Verse	*>Label>Verse	*>Label>Verse	*>Label>Verse	*>Label>Verse
2EM	E:maj/5	8r	.	.	23.031	newline
.	.	16e	Why	.	.	.
.	.	16e	are	.	.	.
.	.	8e	you	.	.	.
.	.	8e	in	.	.	.
2BM	B:maj	8e	so	.	24.152	.
.	.	8d#	much	.	.	.
.	.	8c#	hur-	(A	.	.
.	.	8B	-ry	a)	.	.
=12	=12	=12	=12	=12	=12	=12
2EM	E:maj/5	8r	.	.	25.272	.
.	.	16e	Is	.	.	.
.	.	16e	it	.	.	.
.	.	8e	real-	.	.	.
.	.	8e	-ly	.	.	.
2BM	B:maj	8e	worth	.	26.392	.
.	.	8d#	the	.	.	.
.	.	8B	wor-	(A	.	.
.	.	[8c#	-ry	a)	.	.
=13	=13	=13	=13	=13	=13	=13
1F#M	F#:maj	8c#]	_	.	27.513	.
.	.	8c#	Look	.	.	.
.	.	8c#	a-	.	.	.
.	.	[8B	-round	B	.	.
.	.	8B]	_	.	.	.
.	.	16A#	_	.	.	.
.	.	16F#	_	.	.	.
.	.	4r	.	.	.	.
=14	=14	=14	=14	=14	=14	=14
1F#M	F#:maj	8r	.	.	29.753	.
.	.	8c#	Then	.	.	.
.	.	8c#	slow	.	.	.
.	.	[8B	down	B	.	.
.	.	8B]	_	.	.	.
.	.	16A#	_	.	.	.
.	.	16F#	_	.	.	.
.	.	4r	.	.	.	.
=15	=15	=15	=15	=15	=15	=15
2EM	E:maj/5	8r	.	.	31.994	newline
.	.	16e	What's	.	.	.
.	.	16e	it	.	.	.
.	.	8e	like	.	.	.
.	.	8e	in-	.	.	.
2BM	B:maj	8e	-side	.	33.122	.
.	.	8d#	the	.	.	.
.	.	8c#	bub-	(C	.	.
.	.	8B	-ble	c)	.	.
=16	=16	=16	=16	=16	=16	=16
2EM	E:maj/5	8r	.	.	34.249	.
.	.	16e	Does	.	.	.
.	.	16e	your	.	.	.
.	.	8e	head	.	.	.
.	.	16e	e-	.	.	.
.	.	16e	-ver	.	.	.
2BM	B:maj	8e	give	.	35.377	.
.	.	8d#	you	.	.	.
.	.	8B	trou-	(C	.	.
.	.	8c#	-ble	c)	.	.
=17	=17	=17	=17	=17	=17	=17
1F#M	F#:maj	8r	.	.	36.505	.
.	.	8B	It's	.	.	.
.	.	8c#	no	.	.	.
.	.	[8B	sin	D	.	.
.	.	8B]	_	.	.	.
.	.	16A#	_	.	.	.
.	.	16F#	_	.	.	.
.	.	4r	.	.	.	.
=18	=18	=18	=18	=18	=18	=18
1F#M	F#:maj	8r	.	.	38.76	.
.	.	8c#	Trade	.	.	.
.	.	8c#	it	.	.	.
.	.	[8B	in	D	.	.
.	.	8B]	_	.	.	.
.	.	16A#	_	.	.	.
.	.	16F#	_	.	.	.
.	.	4r	.	.	.	.
=19	=19	=19	=19	=19	=19	=19
*>Letter>B	*>Letter>B	*>Letter>B	*>Letter>B	*>Letter>B	*>Letter>B	*>Letter>B
*>Label>Chorus	*>Label>Chorus	*>Label>Chorus	*>Label>Chorus	*>Label>Chorus	*>Label>Chorus	*>Label>Chorus
*C:	*C:	*C:	*	*	*C:	*C:
2FM	F:maj/5	4.f	Hang	.	41.016	newline
.	.	[8e	on,	.	.	.
2CM	C:maj	8e]	_	.	42.161	.
.	.	8r	.	.	.	.
.	.	4r	.	.	.	.
=20	=20	=20	=20	=20	=20	=20
2FM	F:maj/5	8f	help	.	43.306	.
.	.	16f	is	.	.	.
.	.	[16f	on	.	.	.
.	.	8f]	_	.	.	.
.	.	8g	its	.	.	.
2CM	C:maj	4e	way	E	44.451	.
.	.	4r	.	.	.	.
=21	=21	=21	=21	=21	=21	=21
2FM	F:maj/5	8f	I'll	.	45.596	.
.	.	16f	be	.	.	.
.	.	[16f	there	.	.	.
.	.	8f]	_	.	.	.
.	.	8g	as	.	.	.
2CM	C:maj	8e	fast	.	46.741	.
.	.	8d	as	.	.	.
.	.	8c	I	.	.	.
.	.	[8e	can	F	.	.
=22	=22	=22	=22	=22	=22	=22
1GM	G:maj	8e]	_	.	47.886	.
.	.	[8d	_	.	.	.
.	.	4d]	_	.	.	.
.	.	2r	.	.	.	.
=23	=23	=23	=23	=23	=23	=23
2FM	F:maj/5	4.f	Hang	.	50.176	newline
.	.	[8e	on,	.	.	.
2CM	C:maj	8e]	_	.	51.261	.
.	.	8r	.	.	.	.
.	.	8r	.	.	.	.
.	.	8G	a	.	.	.
=24	=24	=24	=24	=24	=24	=24
2FM	F:maj/5	8f	ti-	.	52.345	.
.	.	16f	-ny	.	.	.
.	.	[16f	voice	.	.	.
.	.	8f]	_	.	.	.
.	.	8g	did	.	.	.
2CM	C:maj	4e	say	E	53.43	.
.	.	8r	.	.	.	.
.	.	8G	From	.	.	.
=25	=25	=25	=25	=25	=25	=25
2FM	F:maj/5	8f	some-	.	54.515	.
.	.	8f	-where	.	.	.
.	.	8f	deep	.	.	.
.	.	8g	in-	.	.	.
2CM	C:maj	8e	-side	.	55.6	.
.	.	16d	the	.	.	.
.	.	[16d	in-	.	.	.
.	.	16d]	_	.	.	.
.	.	16c	-ner	.	.	.
.	.	[8e	man	F	.	.
=26	=26	=26	=26	=26	=26	=26
1GM	G:maj	8e]	_	.	56.684	.
.	.	[8d	_	.	.	.
.	.	4d]	_	.	.	.
.	.	2r	.	.	.	.
=27	=27	=27	=27	=27	=27	=27
*B:	*B:	*B:	*	*	*B:	*B:
*>Letter>A	*>Letter>A	*>Letter>A	*>Letter>A	*>Letter>A	*>Letter>A	*>Letter>A
*>Label>Verse	*>Label>Verse	*>Label>Verse	*>Label>Verse	*>Label>Verse	*>Label>Verse	*>Label>Verse
2EM	E:maj/5	8r	.	.	58.854	newline
.	.	16e	Are	.	.	.
.	.	16e	you	.	.	.
.	.	8e	al-	.	.	.
.	.	8e	-ways	.	.	.
2BM	B:maj	8e	in	.	59.976	.
.	.	8d#	con-	.	.	.
.	.	8c#	-fu-	(G	.	.
.	.	8B	-sion	g)	.	.
=28	=28	=28	=28	=28	=28	=28
2EM	E:maj/5	8r	.	.	61.099	.
.	.	16e	Sur-	.	.	.
.	.	[16e	-roun-	.	.	.
.	.	8e]	_	.	.	.
.	.	8e	-ded	.	.	.
2BM	B:maj	8e	by	.	62.221	.
.	.	8d#	il-	.	.	.
.	.	8B	-lu-	(G	.	.
.	.	8c#	-sion	g)	.	.
=29	=29	=29	=29	=29	=29	=29
1F#M	F#:maj	8r	.	.	63.344	.
.	.	8c#	Sort	.	.	.
.	.	8c#	it	.	.	.
.	.	[8B	out	.	.	.
.	.	8B]	_	.	.	.
.	.	16A#	_	.	.	.
.	.	16F#	_	.	.	.
.	.	4r	.	.	.	.
=30	=30	=30	=30	=30	=30	=30
1F#M	F#:maj	8r	.	.	65.589	.
.	.	8c#	You'll	.	.	.
.	.	8c#	make	.	.	.
.	.	[8B	out	.	.	.
.	.	8B]	_	.	.	.
.	.	16A#	_	.	.	.
.	.	16F#	_	.	.	.
.	.	4r	.	.	.	.
=31	=31	=31	=31	=31	=31	=31
2EM	E:maj/5	8r	.	.	67.834	newline
.	.	16e	Seem	.	.	.
.	.	16e	to	.	.	.
.	.	8e	make	.	.	.
.	.	16e	a	.	.	.
.	.	16e	good	.	.	.
2BM	B:maj	8r	.	.	68.953	.
.	.	8d#	be-	.	.	.
.	.	8c#	-gin-	(H	.	.
.	.	8B	-ning	h)	.	.
=32	=32	=32	=32	=32	=32	=32
2EM	E:maj/5	8r	.	.	70.072	.
.	.	16e	Some-	.	.	.
.	.	16e	-one	.	.	.
.	.	8.e	else	.	.	.
.	.	[16e	ends	.	.	.
2BM	B:maj	8e]	_	.	71.191	.
.	.	8d#	up	.	.	.
.	.	8B	win-	(H	.	.
.	.	8c#	-ning	h)	.	.
=33	=33	=33	=33	=33	=33	=33
1F#M	F#:maj	8r	.	.	72.311	.
.	.	8c#	Don't	.	.	.
.	.	8c#	seem	.	.	.
.	.	[8B	fair	I	.	.
.	.	8B]	_	.	.	.
.	.	16A#	_	.	.	.
.	.	16F#	_	.	.	.
.	.	4r	.	.	.	.
=34	=34	=34	=34	=34	=34	=34
1F#M	F#:maj	8r	.	.	74.549	.
.	.	8c#	Don't	.	.	.
.	.	8c#	you	.	.	.
.	.	[8B	care	I	.	.
.	.	8B]	_	.	.	.
.	.	16A#	_	.	.	.
.	.	16F#	_	.	.	.
.	.	4r	.	.	.	.
=35	=35	=35	=35	=35	=35	=35
*>Letter>B	*>Letter>B	*>Letter>B	*>Letter>B	*>Letter>B	*>Letter>B	*>Letter>B
*>Label>Chorus	*>Label>Chorus	*>Label>Chorus	*>Label>Chorus	*>Label>Chorus	*>Label>Chorus	*>Label>Chorus
*C:	*C:	*C:	*	*	*C:	*C:
2FM	F:maj/5	4.f	Hang	.	76.788	newline
.	.	[8e	on,	.	.	.
2CM	C:maj	8e]	_	.	77.909	.
.	.	8r	.	.	.	.
.	.	4r	.	.	.	.
=36	=36	=36	=36	=36	=36	=36
2FM	F:maj/5	8f	help	.	79.031	.
.	.	16f	is	.	.	.
.	.	[16f	on	.	.	.
.	.	8f]	_	.	.	.
.	.	8g	its	.	.	.
2CM	C:maj	4e	way	E	80.152	.
.	.	4r	.	.	.	.
=37	=37	=37	=37	=37	=37	=37
2FM	F:maj/5	8f	I'll	.	81.274	.
.	.	16f	be	.	.	.
.	.	[16f	there	.	.	.
.	.	8f]	_	.	.	.
.	.	8g	as	.	.	.
2CM	C:maj	8e	fast	.	82.396	.
.	.	8d	as	.	.	.
.	.	8c	I	.	.	.
.	.	[8e	can	F	.	.
=38	=38	=38	=38	=38	=38	=38
1GM	G:maj	8e]	_	.	83.517	.
.	.	[8d	_	.	.	.
.	.	4d]	_	.	.	.
.	.	2r	.	.	.	.
=39	=39	=39	=39	=39	=39	=39
2FM	F:maj/5	4.f	Hang	.	85.76	newline
.	.	[8e	on,	.	.	.
2CM	C:maj	8e]	_	.	86.88	.
.	.	8r	.	.	.	.
.	.	8.r	.	.	.	.
.	.	16G	a	.	.	.
=40	=40	=40	=40	=40	=40	=40
2FM	F:maj/5	8f	ti-	.	88	.
.	.	16f	-ny	.	.	.
.	.	[16f	voice	.	.	.
.	.	8f]	_	.	.	.
.	.	8g	did	.	.	.
2CM	C:maj	4e	say	E	89.119	.
.	.	8r	.	.	.	.
.	.	8G	From	.	.	.
=41	=41	=41	=41	=41	=41	=41
2FM	F:maj/5	8f	some-	.	90.239	.
.	.	8f	-where	.	.	.
.	.	8f	deep	.	.	.
.	.	8g	in-	.	.	.
2CM	C:maj	8e	-side	.	91.358	.
.	.	16d	the	.	.	.
.	.	[16d	in-	.	.	.
.	.	16d]	_	.	.	.
.	.	16c	-ner	.	.	.
.	.	[8e	man	F	.	.
=42	=42	=42	=42	=42	=42	=42
1GM	G:maj	8e]	_	.	92.478	.
.	.	[8d	_	.	.	.
.	.	4d_	_	.	.	.
.	.	4d_	_	.	.	.
.	.	8d]	_	.	.	.
.	.	8r	.	.	.	.
=43	=43	=43	=43	=43	=43	=43
*>Letter>C	*>Letter>C	*>Letter>C	*>Letter>C	*>Letter>C	*>Letter>C	*>Letter>C
*>Label>Bridge	*>Label>Bridge	*>Label>Bridge	*>Label>Bridge	*>Label>Bridge	*>Label>Bridge	*>Label>Bridge
*f#:	*f#:	*f#:	*	*	*f#:	*f#:
1F#m	F#:min	1r	.	.	94.717	newline
=44	=44	=44	=44	=44	=44	=44
1C#m	C#:min/3	1r	.	.	96.955	.
=45	=45	=45	=45	=45	=45	=45
1AM	A:maj/5	1r	.	.	99.194	.
=46	=46	=46	=46	=46	=46	=46
1Bm	B:min	1r	.	.	101.432	.
=47	=47	=47	=47	=47	=47	=47
1F#m	F#:min	8c#	Don't	.	103.67	newline
.	.	8c#	you	.	.	.
.	.	8d	for-	.	.	.
.	.	8c#	-get	.	.	.
.	.	4r	.	.	.	.
.	.	8B	who'll	.	.	.
.	.	8A	take	.	.	.
=48	=48	=48	=48	=48	=48	=48
1C#m	C#:min/3	4c#	care	.	105.889	.
.	.	8d	of	.	.	.
.	.	[8c#	you	G	.	.
.	.	8c#]	_	.	.	.
.	.	8r	.	.	.	.
.	.	4r	.	.	.	.
=49	=49	=49	=49	=49	=49	=49
1AM	A:maj/5	8c#	It	.	108.109	.
.	.	4c#	don't	.	.	.
.	.	4c#	mat-	.	.	.
.	.	8B	-ter	.	.	.
.	.	4r	.	.	.	.
=50	=50	=50	=50	=50	=50	=50
1Bm	B:min	8c#	what	.	110.329	.
.	.	4B	you	.	.	.
.	.	[8B	do	G	.	.
.	.	8B]	_	.	.	.
.	.	16A#	_	.	.	.
.	.	16F#	_	.	.	.
.	.	4r	.	.	.	.
=51	=51	=51	=51	=51	=51	=51
1F#m	F#:min	8c#	Form	.	112.548	newline
.	.	8B	a	.	.	.
.	.	8A	du-	G	.	.
.	.	8G#	-et,	.	.	.
.	.	4F#	_	.	.	.
.	.	8F#	let	.	.	.
.	.	8F#	him	.	.	.
=52	=52	=52	=52	=52	=52	=52
1C#m	C#:min/3	8c#	sing	.	114.841	.
.	.	8c#	me-	.	.	.
.	.	8d	-lo-	(j	.	.
.	.	[8c#	-dy	J)	.	.
.	.	4c#]	_	.	.	.
.	.	4r	.	.	.	.
=53	=53	=53	=53	=53	=53	=53
1AM	A:maj/5	4c#	You'll	.	117.133	.
.	.	8B	pro-	.	.	.
.	.	8B	-vide	.	.	.
.	.	4.A	_	.	.	.
.	.	8A	the	.	.	.
=54	=54	=54	=54	=54	=54	=54
1Bm	B:min	4c#	har-	.	119.426	.
.	.	8B	-mo-	(j	.	.
.	.	[8B	-ny	.J)	.	.
.	.	4B]	_	.	.	.
.	.	4r	.	.	.	.
=55	=55	=55	=55	=55	=55	=55
1AM	A:maj	1r	.	.	121.718	.
=56	=56	=56	=56	=56	=56	=56
1Bm	B:min	1r	.	.	124.011	.
=57	=57	=57	=57	=57	=57	=57
*C:	*C:	*C:	*	*	*C:	*C:
2CM	C:maj/5	1r	.	.	126.304	newline
2GM	G:maj	.	.	.	127.392	.
=58	=58	=58	=58	=58	=58	=58
2CM	C:maj/5	1r	.	.	128.481	.
2GM	G:maj	.	.	.	129.57	.
=59	=59	=59	=59	=59	=59	=59
2CM	C:maj/5	1r	.	.	130.659	.
2GM	G:maj	.	.	.	131.748	.
=60	=60	=60	=60	=60	=60	=60
2GM	G:maj/5	1r	.	.	132.837	.
2DM	D:maj	.	.	.	133.926	.
=61	=61	=61	=61	=61	=61	=61
2CM	C:maj/5	1r	.	.	135.014	newline
2GM	G:maj	.	.	.	136.131	.
=62	=62	=62	=62	=62	=62	=62
2CM	C:maj/5	1r	.	.	137.247	.
2GM	G:maj	.	.	.	138.364	.
=63	=63	=63	=63	=63	=63	=63
2CM	C:maj/5	1r	.	.	139.481	.
2GM	G:maj	.	.	.	140.597	.
=64	=64	=64	=64	=64	=64	=64
2GM	G:maj/5	1r	.	.	141.714	.
2DM	D:maj	.	.	.	142.83	.
=65	=65	=65	=65	=65	=65	=65
*>Letter>A	*>Letter>A	*>Letter>A	*>Letter>A	*>Letter>A	*>Letter>A	*>Letter>A
*>Label>Verse	*>Label>Verse	*>Label>Verse	*>Label>Verse	*>Label>Verse	*>Label>Verse	*>Label>Verse
*B:	*B:	*B:	*	*	*B:	*B:
2EM	E:maj/5	8r	.	.	143.947	newline
.	.	16e	Why	.	.	.
.	.	16e	are	.	.	.
.	.	8e	you	.	.	.
.	.	8e	in	.	.	.
2BM	B:maj	8e	so	.	145.061	.
.	.	8d#	much	.	.	.
.	.	8c#	hur-	(A	.	.
.	.	8B	-ry	a)	.	.
=66	=66	=66	=66	=66	=66	=66
2EM	E:maj/5	8r	.	.	146.176	.
.	.	16e	Is	.	.	.
.	.	16e	it	.	.	.
.	.	8e	real-	.	.	.
.	.	8e	-ly	.	.	.
2BM	B:maj	8e	worth	.	147.291	.
.	.	8d#	the	.	.	.
.	.	8B	wor-	(A	.	.
.	.	[8c#	-ry	a)	.	.
=67	=67	=67	=67	=67	=67	=67
1F#M	F#:maj	8c#]	_	.	148.406	.
.	.	8c#	Look	.	.	.
.	.	8c#	a-	.	.	.
.	.	[8B	-round	B	.	.
.	.	8B]	_	.	.	.
.	.	16A#	_	.	.	.
.	.	16F#	_	.	.	.
.	.	4r	.	.	.	.
=68	=68	=68	=68	=68	=68	=68
1F#M	F#:maj	8r	.	.	150.636	.
.	.	8c#	Then	.	.	.
.	.	8c#	slow	.	.	.
.	.	[8B	down	B	.	.
.	.	8B]	_	.	.	.
.	.	16A#	_	.	.	.
.	.	16F#	_	.	.	.
.	.	4r	.	.	.	.
=69	=69	=69	=69	=69	=69	=69
2EM	E:maj/5	8r	.	.	152.866	newline
.	.	16e	What's	.	.	.
.	.	16e	it	.	.	.
.	.	8e	like	.	.	.
.	.	8e	in-	.	.	.
2BM	B:maj	8.e	-side	.	153.985	.
.	.	16f#	the	.	.	.
.	.	8c#	bub-	(C	.	.
.	.	8B	-ble	c)	.	.
=70	=70	=70	=70	=70	=70	=70
2EM	E:maj/5	8r	.	.	155.105	.
.	.	16e	Does	.	.	.
.	.	16e	your	.	.	.
.	.	8e	head	.	.	.
.	.	16e	e-	.	.	.
.	.	16e	-ver	.	.	.
2BM	B:maj	8e	give	.	156.225	.
.	.	8d#	you	.	.	.
.	.	8B	trou-	(C	.	.
.	.	8c#	-ble	c)	.	.
=71	=71	=71	=71	=71	=71	=71
1F#M	F#:maj	8r	.	.	157.344	.
.	.	8B	It's	.	.	.
.	.	8c#	no	.	.	.
.	.	[8B	sin	D	.	.
.	.	8B]	_	.	.	.
.	.	16A#	_	.	.	.
.	.	16F#	_	.	.	.
.	.	4r	.	.	.	.
=72	=72	=72	=72	=72	=72	=72
1F#M	F#:maj	8r	.	.	159.584	.
.	.	8c#	Trade	.	.	.
.	.	8c#	it	.	.	.
.	.	[8B	in	D	.	.
.	.	8B]	_	.	.	.
.	.	16A#	_	.	.	.
.	.	16F#	_	.	.	.
.	.	4r	.	.	.	.
=73	=73	=73	=73	=73	=73	=73
*>Letter>B	*>Letter>B	*>Letter>B	*>Letter>B	*>Letter>B	*>Letter>B	*>Letter>B
*>Label>Chorus	*>Label>Chorus	*>Label>Chorus	*>Label>Chorus	*>Label>Chorus	*>Label>Chorus	*>Label>Chorus
*C:	*C:	*C:	*	*	*C:	*C:
2FM	F:maj/5	4.f	Hang	.	161.823	newline
.	.	[8e	on,	.	.	.
2CM	C:maj	8e]	_	.	162.943	.
.	.	8r	.	.	.	.
.	.	4r	.	.	.	.
=74	=74	=74	=74	=74	=74	=74
2FM	F:maj/5	8f	help	.	164.062	.
.	.	16f	is	.	.	.
.	.	[16f	on	.	.	.
.	.	8f]	_	.	.	.
.	.	8g	its	.	.	.
2CM	C:maj	4e	way	E	165.182	.
.	.	4r	.	.	.	.
=75	=75	=75	=75	=75	=75	=75
2FM	F:maj/5	8f	I'll	.	166.302	.
.	.	16f	be	.	.	.
.	.	[16f	there	.	.	.
.	.	8f]	_	.	.	.
.	.	8f	as	.	.	.
2CM	C:maj	6g	fast	.	167.422	.
.	.	6e	as	.	.	.
.	.	6c	I	.	.	.
=76	=76	=76	=76	=76	=76	=76
1GM	G:maj	4e	can	F	168.541	.
.	.	[4d	_	.	.	.
.	.	2d]	_	.	.	.
=77	=77	=77	=77	=77	=77	=77
2FM	F:maj/5	4.f	Hang	.	170.781	newline
.	.	[8e	on,	.	.	.
2CM	C:maj	8e]	_	.	171.907	.
.	.	8r	.	.	.	.
.	.	8.r	.	.	.	.
.	.	16G	a	.	.	.
=78	=78	=78	=78	=78	=78	=78
2FM	F:maj/5	8f	ti-	.	173.033	.
.	.	16f	-ny	.	.	.
.	.	[16f	voice	.	.	.
.	.	8f]	_	.	.	.
.	.	8g	did	.	.	.
2CM	C:maj	4e	say	E	174.159	.
.	.	8r	.	.	.	.
.	.	8G	From	.	.	.
=79	=79	=79	=79	=79	=79	=79
2FM	F:maj/5	8f	some-	.	175.285	.
.	.	8f	-where	.	.	.
.	.	8f	deep	.	.	.
.	.	8g	in-	.	.	.
2CM	C:maj	8e	-side	.	176.411	.
.	.	16d	the	.	.	.
.	.	[16d	in-	.	.	.
.	.	16d]	_	.	.	.
.	.	16c	-ner	.	.	.
.	.	[8e	man	F	.	.
=80	=80	=80	=80	=80	=80	=80
1GM	G:maj	8e]	_	.	177.537	.
.	.	[8d	_	.	.	.
.	.	4d]	_	.	.	.
.	.	2r	.	.	.	.
=81	=81	=81	=81	=81	=81	=81
2FM	F:maj/5	4.f	Hang	.	179.789	newline
.	.	8e	on,	.	.	.
2CM	C:maj	8r	.	.	180.911	.
.	.	8r	.	.	.	.
.	.	4r	.	.	.	.
=82	=82	=82	=82	=82	=82	=82
2FM	F:maj/5	8f	help	.	182.033	.
.	.	16f	is	.	.	.
.	.	[16f	on	.	.	.
.	.	8f]	_	.	.	.
.	.	8e	its	.	.	.
2CM	C:maj	4e	way	E	183.155	.
.	.	4r	.	.	.	.
=83	=83	=83	=83	=83	=83	=83
2FM	F:maj/5	8f	I'll	.	184.277	.
.	.	16f	be	.	.	.
.	.	[16f	there	.	.	.
.	.	8f]	_	.	.	.
.	.	8f	as	.	.	.
2CM	C:maj	6g	fast	.	185.399	.
.	.	6e	as	.	.	.
.	.	6c	I	.	.	.
=84	=84	=84	=84	=84	=84	=84
1GM	G:maj	4e	can	F	186.521	.
.	.	[4d	_	.	.	.
.	.	4d]	_	.	.	.
.	.	4r	.	.	.	.
=85	=85	=85	=85	=85	=85	=85
2FM	F:maj/5	4.f	Hang	.	188.766	newline
.	.	[8e	on,	.	.	.
2CM	C:maj	8e]	_	.	189.883	.
.	.	8r	.	.	.	.
.	.	8.r	.	.	.	.
.	.	16G	a	.	.	.
=86	=86	=86	=86	=86	=86	=86
2FM	F:maj/5	8f	ti-	.	191.001	.
.	.	16f	-ny	.	.	.
.	.	[16f	voice	.	.	.
.	.	8f]	_	.	.	.
.	.	8g	did	.	.	.
2CM	C:maj	4e	say	E	192.119	.
.	.	8r	.	.	.	.
.	.	8G	From	.	.	.
=87	=87	=87	=87	=87	=87	=87
2FM	F:maj/5	8f	some-	.	193.236	.
.	.	8f	-where	.	.	.
.	.	8f	deep	.	.	.
.	.	8g	in-	.	.	.
2CM	C:maj	8e	-side	.	194.354	.
.	.	16d	the	.	.	.
.	.	[16d	in-	.	.	.
.	.	16d]	_	.	.	.
.	.	16c	-ner	.	.	.
.	.	[8e	man	F	.	.
=88	=88	=88	=88	=88	=88	=88
1GM	G:maj	8e]	_	.	195.471	.
.	.	[8d	_	.	.	.
.	.	4d_	_	.	.	.
.	.	4.d]	_	.	.	.
.	.	8r	.	.	.	.
=89	=89	=89	=89	=89	=89	=89
*>Letter>A	*>Letter>A	*>Letter>A	*>Letter>A	*>Letter>A	*>Letter>A	*>Letter>A
*>Label>Outro	*>Label>Outro	*>Label>Outro	*>Label>Outro	*>Label>Outro	*>Label>Outro	*>Label>Outro
*B:	*B:	*B:	*	*	*B:	*B:
2EM	E:maj/5	1r	.	.	197.706	newline
2BM	B:maj	.	.	.	198.821	.
=90	=90	=90	=90	=90	=90	=90
2EM	E:maj/5	1r	.	.	199.935	.
2BM	B:maj	.	.	.	201.05	.
=91	=91	=91	=91	=91	=91	=91
1F#M	F#:maj	1r	.	.	202.164	.
=92	=92	=92	=92	=92	=92	=92
1F#M	F#:maj	1r	.	.	204.393	.
=93	=93	=93	=93	=93	=93	=93
2EM	E:maj/5	[1B	Aah	.	206.622	newline
2BM	B:maj	.	.	.	207.745	.
=94	=94	=94	=94	=94	=94	=94
2EM	E:maj/5	2.B]	_	.	208.868	.
2BM	B:maj	.	.	.	209.991	.
.	.	4c#	Aah	.	.	.
=95	=95	=95	=95	=95	=95	=95
1F#M	F#:maj	2.A#	ah	.	211.113	.
.	.	4r	.	.	.	.
=96	=96	=96	=96	=96	=96	=96
1F#M	F#:maj	8c#	Help	.	213.359	.
.	.	16c#	is	.	.	.
.	.	[16c#	on	.	.	.
.	.	16c#]	_	.	.	.
.	.	16B	its	.	.	.
.	.	[8d#	way	E	.	.
.	.	8d#]	_	.	.	.
.	.	8c#	_	.	.	.
.	.	4r	.	.	.	.
=97	=97	=97	=97	=97	=97	=97
2EM	E:maj/5	[1B	Aah	.	215.605	newline
2BM	B:maj	.	.	.	216.716	.
=98	=98	=98	=98	=98	=98	=98
2EM	E:maj/5	2.B]	_	.	217.827	.
2BM	B:maj	.	.	.	218.939	.
.	.	4c#	Aah	.	.	.
=99	=99	=99	=99	=99	=99	=99
1F#M	F#:maj	2.A#	ah	.	220.05	.
.	.	4r	.	.	.	.
=100	=100	=100	=100	=100	=100	=100
1F#M	F#:maj	8c#	Help	.	222.273	.
.	.	16c#	is	.	.	.
.	.	[16c#	on	.	.	.
.	.	16c#]	_	.	.	.
.	.	16B	its	.	.	.
.	.	[8d#	way	E	.	.
.	.	8d#]	_	.	.	.
.	.	8c#	_	.	.	.
.	.	4r	.	.	.	.
=101	=101	=101	=101	=101	=101	=101
2EM	E:maj/5	1r	.	.	224.496	newline
2BM	B:maj	.	.	.	225.638	.
=102	=102	=102	=102	=102	=102	=102
2EM	E:maj/5	1r	.	.	226.78	.
2BM	B:maj	.	.	.	227.922	.
=103	=103	=103	=103	=103	=103	=103
1F#M	F#:maj	1r	.	.	229.064	.
=104	=104	=104	=104	=104	=104	=104
1F#M	F#:maj	1r	.	.	231.349	.
=105	=105	=105	=105	=105	=105	=105
2EM	E:maj/5	1r	.	.	233.633	newline
2BM	B:maj	.	.	.	234.471	.
=106	=106	=106	=106	=106	=106	=106
2EM	E:maj/5	1r	.	.	235.309	.
2BM	B:maj	.	.	.	236.147	.
=107	=107	=107	=107	=107	=107	=107
2EM	E:maj/5	1r	.	.	236.985	.
2BM	B:maj	.	.	.	237.823	.
=108	=108	=108	=108	=108	=108	=108
2EM	E:maj/5	1r	.	.	238.661	.
2BM	B:maj	.	.	.	239.499	.
1r;	1r	r;	.	.	240.337	.
1r;	1r	r;	.	.	242.312	.
*-	*-	*-	*-	*-	*-	*-
!!!BillboardChartDate: 1977/11/05, 1977/12/24
!!!BillboardPeak: 14, 14
!!!BillboardWeeksOnChart: 22, 22
!!!COC: Little River Band
!!!ENC: Nathaniel Condit-Schultz
!!!EST: Awating manual error checking and editing.
!!!OTL: Help Is On Its Way
!!!RDF**chordsym: original McGill chord annotation + (implied pitch class set, with bass pitch in first position)
!!!RDF**harmony: **recip + pitch class of root + harmonic quality
!!!RDF**leadinstrument: original McGill primary instrumentation annotation
!!!RDF**phrase: newline = linebreak in original McGill transcription
!!!RDF**timestamp: McGill audio timestamp in seconds
!!!RDT: 2017/01/12/
!!!SampleActualRank: 18, 100
!!!SampleID#: 187, 721
!!!SampleTargetRank: 20, 98
!!!MBID: 6aec9572-5044-4dca-849c-8c790d431355
